X:1
T:Fasten the Leg in Her
M:6/8
K:G
A|B3 BAB|GBd gdB|A3 AGA|Bee dBA|
B3 BAB|GBd g3|gfg eag|fd^c d2:| 
f|gbg faf|e ((3gfe) dBA|G3 AGA|Bee def|
g2g f3|ege def|gfg eag|fd^c d2:|
